optimized/24/solid/squares-2x2.svg

<svg xmlns="http://www.w3.org/2000/svg" viewBox="0 0 24 24">
  <path fill-rule="evenodd" d="M3 6C3 4.34315 4.34315 3 6 3H8.25C9.90685 3 11.25 4.34315 11.25 6V8.25C11.25 9.90685 9.90685 11.25 8.25 11.25H6C4.34315 11.25 3 9.90685 3 8.25V6ZM12.75 6C12.75 4.34315 14.0931 3 15.75 3H18C19.6569 3 21 4.34315 21 6V8.25C21 9.90685 19.6569 11.25 18 11.25H15.75C14.0931 11.25 12.75 9.90685 12.75 8.25V6ZM3 15.75C3 14.0931 4.34315 12.75 6 12.75H8.25C9.90685 12.75 11.25 14.0931 11.25 15.75V18C11.25 19.6569 9.90685 21 8.25 21H6C4.34315 21 3 19.6569 3 18V15.75ZM12.75 15.75C12.75 14.0931 14.0931 12.75 15.75 12.75H18C19.6569 12.75 21 14.0931 21 15.75V18C21 19.6569 19.6569 21 18 21H15.75C14.0931 21 12.75 19.6569 12.75 18V15.75Z" clip-rule="evenodd"/>
</svg>

<svg xmlns="http://www.w3.org/2000/svg" viewBox="0 0 24 24" fill="currentColor" aria-hidden="true">
  <path fill-rule="evenodd" d="M3 6a3 3 0 013-3h2.25a3 3 0 013 3v2.25a3 3 0 01-3 3H6a3 3 0 01-3-3V6zm9.75 0a3 3 0 013-3H18a3 3 0 013 3v2.25a3 3 0 01-3 3h-2.25a3 3 0 01-3-3V6zM3 15.75a3 3 0 013-3h2.25a3 3 0 013 3V18a3 3 0 01-3 3H6a3 3 0 01-3-3v-2.25zm9.75 0a3 3 0 013-3H18a3 3 0 013 3V18a3 3 0 01-3 3h-2.25a3 3 0 01-3-3v-2.25z" clip-rule="evenodd"/>
</svg>
